X: 5137
T: Bridie's Joy
R: reel
M: 4/4
K: Dmajor
D2FA d2AF|GFEF GFEF|D2FA dfed|Bd eg fd~d2|
D2FA dBAF|GFEF GFEF|D2FA dBed|(3Bcd eg fdd2|
~f3f fedc|(3Bcd Ad Bded|f2ea fded|(3Bcd eg fdd2|
fdea fded|Bd Ad (3Bcd AB|d2ef gfge|~a3g fd~d2||

